X: 29407
T: Nicky's Archive
R: barndance
M: 4/4
K: Dmajor
M:2/4
|:B/|AF A/A/A|BG B/B/B|cA ce|d/c/d/e/ f/e/d/B/|
AF A/A/A|BG B/B/B|ce AB/c/|dd dd/:|
|:B/|Af f>e|ed d/c/B|Bg g>f|fe e/d/c/B/|
Af f>e|ed d/c/B|Bg gB/c/|ed dd/:|

